X:1
T:Title
%%score { ( 1 4 ) | ( 2 3 ) }
L:1/8
Q:1/4=100
M:4/4
K:Ab
V:1 treble nm="Grand Piano"
V:4 treble 
V:2 bass 
V:3 bass 
V:1
 [CE]2 [_C=D][=CE] [_DF]2 [CE]2 | [Ec]2 [=D_c][E=c] [Fd]2 [Ec]2 | B2 =AB c2 BG | F2 G2 [CA]4 | %4
w: Haldor~Lillenas * * * *||||
 [CE]2 [_C=D][=CE] [_DF]2 [CE]2 | [Ec]2 [=D_c][E=c] [Fd]2 [Ec]2 | F2 GA E2 A2 | c2 B2 [CA]4 | %8
w: ||||
 G2 GA B2 E2 | [CA]2 [EA][EB] [Ec]2 .[A,EA]2 | [Fd]2 [Fd][Fd] [Ec]2 [EA]2 |[M:9/8] B6- B z z | %12
w: ||||
[M:4/4] [CE]2 [_C=D][=CE] [_DF]2 [CE]2 |[M:9/8] [Ec]2 [=D_c] [E=c] [_Ge]2 [Fd]3 | %14
w: ||
[M:4/4] c2 cA B B3 | [CEA]6 z2 |] %16
w: ||
V:2
 [A,,A,]2 [A,,A,][A,,A,] [A,,A,]2 [A,,A,]2 | [A,,A,]2 [A,,A,][A,,A,] [A,,A,]2 [A,,A,]2 | %2
 [E,G,E]2 [E,_G,E][E,=G,E] [E,A,E]2 [E,G,D][E,B,D] | [E,G,D]2 [E,B,D]2 [A,,A,]4 | %4
 [A,,A,]2 [A,,A,][A,,A,] [A,,A,]2 [A,,A,]2 | [A,,A,]2 [A,,A,][A,,A,] [A,,A,]2 [A,,A,]2 | %6
 [D,A,D]2 [D,G,D][D,F,D] [E,A,C]2 [E,A,C]2 | [E,A,E]2 [E,G,D]2 [A,,A,]4 | %8
 [E,B,D]2 [E,B,D][E,A,C] [E,G,D]2 [E,B,D]2 | [A,,A,]2 [C,A,][B,,G,] [A,,A,]2 z _G | %10
 [D,A,]2 [D,A,][D,A,] [A,,A,]2 [C,A,]2 |[M:9/8] [E,G,E]2 [F,A,]- [F,A,] [E,G,]2- [E,G,] z z | %12
[M:4/4] [A,,A,]2 [A,,A,][A,,A,] [A,,A,]2 [A,,A,]2 | %13
[M:9/8] [A,,A,]2 [A,,A,] [A,,A,] [C,A,]2 [D,A,]3 |[M:4/4] [E,A,E]2 [E,A,E][E,CE] [E,DE] [E,DE]3 | %15
 A,,6 z2 |] %16
V:3
 x8 | x8 | x8 | x8 | x8 | x8 | x8 | x8 | x8 | z4 z2 C,2 | x8 |[M:9/8] x9 |[M:4/4] x8 |[M:9/8] x9 | %14
[M:4/4] x8 | x8 |] %16
V:4
 x8 | x8 | x8 | x8 | x8 | x8 | x8 | x8 | x8 | x8 | x8 |[M:9/8] z2 =D- D _D2- D z z |[M:4/4] x8 | %13
[M:9/8] x9 |[M:4/4] x8 | x8 |] %16

